images_sukapura_svg/cmd/sc_choosemacro.svg

<svg viewBox="0 0 16 16" xmlns="http://www.w3.org/2000/svg" xmlns:xlink="http://www.w3.org/1999/xlink"><linearGradient id="a" gradientUnits="userSpaceOnUse" x1="11.003906" x2="11" y1="14.91016" y2="1"><stop offset="0" stop-color="#f6f6f6"/><stop offset="1" stop-color="#fff"/></linearGradient>


     /&amp;gt;
 <path d="m8.7773438.9765625c.0058802.00779688.0117396.01560941.0175781.0234375h-4.7949219v.017578c-.533997.1270201-.8266138.4947913-1 .982422v9.982422c-.06906.0014-.1282364.0096-.1933594.01367-.3736689-.03397-.716301.0484-1.0019531.210937-.6268889.267366-.86471507.984321-.8125 1.449219-.002239.03193-.0121649.0639-.0117188.0957.006895.491527.34398545.9582 1.14843745 1.152344.1609346.05069.3303102.08701.515625.09375.051496.0019.1071945-.006.1601563-.0078.06618235.002925.12499925.009586.19531255.009758h4.2636719c-.00588-.0078-.01174-.01561-.017578-.02344l3.3632812.01758.002.0059c.08568-.02039.176844-.07996.267578-.15625.04414.02062.08264.05003.128906.06641.596378-.212706.994966-.776982.996094-1.410156-.000362-.129259-.01743-.257929-.05078-.382812.01356-.03435.04061-.08858.05078-.117188l.04102-9.2558594c.07185-.00142.133578-.00936.201172-.013672.372474.032418.713474-.048175.998046-.2109376.625266-.2675418 1.856873-.734843 1.804688-1.1992187.0022-.031933.01216-.063895.01172-.095703-.0065-.4611622-1.301378-.8963342-2.001953-1.109375-.04379-.013315-.08581-.027577-.132813-.039063-.163354-.052324-.336726-.0907971-.525391-.0976563-.05341-.001942-.111027.007702-.166015.009766-.06434-.002776-.121219-.0115515-.189453-.0117188zm2.2304682 13.9335935c-.03347.01161-.06735.02204-.101562.03125.03421-.0092.06809-.01964.101562-.03125zm-.101562.03125c-.02649.0079-.05319.01506-.08008.02149.02689-.0064.05359-.01359.08008-.02149zm-.136719.0332c-.03817.0074-.07661.01322-.115234.01758.03862-.0044.07707-.01023.115234-.01758z" fill="url(#a)"/><path d="m4.25 0c-1.3070984 0-2.25 1.1080036-2.25 2.375v1.875 5.1425781 1.8046879c-1.07146171.240703-2 1.27521-2 2.427734 0 1.346001 1.1942339 2.375 2.5 2.375h5.84375 2.410156c1.307098 0 2.249668-1.108004 2.25-2.375v-1.875-5.1425781-2.0546875c1.071462-.2407031 2.996094-1.0252107 2.996094-2.1777344 0-1.3460015-1.262328-2.375-2.568094-2.375h-5.775656zm0 1h4.4863281 3.7675779c.76536 0 2.496094.6498765 2.496094 1.375s-1.730931 1.3576694-2.496094 1.375h-.5v2.4648438 5.5351562l-.01131 1.807118c-.0045.723658-1.010183 1.417191-1.453646 1.420255l-3.2752781.022627h-4.7636719c-.7653589 0-1.5-.649877-1.5-1.375 0-.09064.0116205-.180412.0332031-.267578.1510787-.610167.7971075-1.357422 1.4667969-1.357422h.5v-2.2148438-5.5351562-1.875c0-.8105224.4795984-1.375 1.25-1.375z" fill="#98989d"/><circle cx="2.5" cy="13.5" fill="#98989d" r="1.5"/><path d="m0 11v3h8.087891c.2116336.598592.7772071.999109 1.412109 1 .171876-.000857.342325-.03125.503906-.08984-.527274-.186662-.925614-.656347-.992187-1.240234h-.011719v-.169926-1.5-1z" fill="#c93400"/><path d="m2 11v.197266c-1.07146171.240703-2 1.27521-2 2.427734 0 1.346001 1.1942339 2.375 2.5 2.375h8.25c.08644 0 .166915-.01793.25-.02734v-1.15039c-.17551.09242-.342241.153648-.464844.154296l-.287109.002c.05558.0097.111657.01618.167969.01953l-1.416016-.007862h-.9570312l-1.7792969.009766h-3.7636719c-.0973966-.000134-.1926433-.011307-.2851562-.029297-.2783204-.054121-.5271343-.186577-.7285157-.373047-.278703-.244231-.4654721-.573421-.4804687-.927734h-.0058594v-.044922-.125-1.5h1.5.5v-1zm8.605469 3.994141.002.0059h-.0957c.0313-.000974.06257-.0029.09375-.0059z" fill="#c93400"/><path d="m1 12v1.5.169922h.011719c.0863071.75699.7263879 1.32903 1.488281 1.330078.1023627.000007.2044573-.01046.3046875-.03125v.02148h5.1953125l1.416016.0078c-.7289575-.041898-1.3218367-.602618-1.404297-1.328108h-.011719v-.169922-1.5zm8.605469 2.994141c-.03118.0029-.06245.0049-.09375.0059h.0957z" fill="#ff9500"/><path d="m14 .05273438v1.05078122c.189533.0691263.367347.1633377.513672.2988282.189174.1657756.330661.3723074.410156.5976562h-.923828v2 .8027344.1972656h2v-2.625-.375h-.035156c-.168921-.9906683-.989692-1.74952773-1.964844-1.94726562z" fill="#c93400"/><path d="m13.416016 1c.171876.000857.422403.0449256.583984.1035156-.527274.186662-.921708.6426757-.988281 1.2265627h-.01172v.1699217 1.5 1h-.999999v-3h.0039c.211633-.598592.777207-.999109 1.41211-1z" fill="#f00"/><path d="m14 .05273438c-.975152.19773789-1.795927.95659732-1.964844 1.94726562h-.035156v.375 2.625h2v-.1972656-.8027344h-1v-1.5-.1699219h.011719c.013282-.1168576.049297-.2242185.08789-.3300781h-.023437c.054283-.15388.146365-.2925289.253906-.421875.010561-.0129858.022214-.0244939.033203-.0371094.041109-.0461956.075754-.097228.123047-.1386718.043472-.0402534.094066-.0701247.142578-.1035157.010673-.0075548.020375-.0161491.03125-.0234375.106119-.0685843.219102-.1278381.339844-.171875z" fill="#c93400"/><path d="m14.021484 1.095703c-.536381.1839047-.943075.6476307-1.009765 1.234375h-.011719v.169922 1.5h2v-1.5-.1699219h-.01172c-.065537-.5748344-.451748-1.0418811-.966796-1.2343751z" fill="#ff9500"/></svg>

<?xml version="1.0" encoding="UTF-8" standalone="no"?>
<svg
   xmlns:dc="http://purl.org/dc/elements/1.1/"
   xmlns:cc="http://creativecommons.org/ns#"
   xmlns:rdf="http://www.w3.org/1999/02/22-rdf-syntax-ns#"
   xmlns:svg="http://www.w3.org/2000/svg"
   xmlns="http://www.w3.org/2000/svg"
   xmlns:xlink="http://www.w3.org/1999/xlink"
   xmlns:sodipodi="http://sodipodi.sourceforge.net/DTD/sodipodi-0.dtd"
   xmlns:inkscape="http://www.inkscape.org/namespaces/inkscape"
   viewBox="0 0 16 16"
   version="1.1"
   id="svg12"
   sodipodi:docname="sc_choosemacro.svg"
   inkscape:version="0.92.3 (unknown)"
   inkscape:export-filename="/home/rizmut/Dokumen/Rizmut/Github/libreoffice-style-sukapura/images_sukapura/cmd/sc_choosemacro.png"
   inkscape:export-xdpi="96"
   inkscape:export-ydpi="96"><metadata
   id="metadata18">
  <rdf:RDF>
    <cc:Work
       rdf:about="">
      <dc:format>image/svg+xml</dc:format>
      <dc:type
         rdf:resource="http://purl.org/dc/dcmitype/StillImage" />
      <dc:title></dc:title>
    </cc:Work>
  </rdf:RDF>
</metadata>
<defs
   id="defs16">
  <linearGradient
     inkscape:collect="always"
     id="linearGradient895">
    <stop
       style="stop-color:#f6f6f6;stop-opacity:1;"
       offset="0"
       id="stop891" />
    <stop
       style="stop-color:#ffffff;stop-opacity:1"
       offset="1"
       id="stop893" />
  </linearGradient>
  <clipPath
     clipPathUnits="userSpaceOnUse"
     id="clipPath847">
    <rect
       style="opacity:1;fill:#98989d;fill-opacity:1;stroke:none;stroke-width:1;stroke-linecap:round;stroke-linejoin:round;stroke-miterlimit:4;stroke-dasharray:none;stroke-opacity:1"
       id="rect849"
       width="83.606392"
       height="73.251465"
       x="4857.6079"
       y="-1109.2346"
       rx="0.5"
       ry="0.5" />
  </clipPath>
  <linearGradient
     inkscape:collect="always"
     xlink:href="#linearGradient895"
     id="linearGradient897"
     x1="11.003906"
     y1="14.91016"
     x2="11"
     y2="1"
     gradientUnits="userSpaceOnUse" />
</defs>
<sodipodi:namedview
   pagecolor="#ffffff"
   bordercolor="#666666"
   borderopacity="1"
   objecttolerance="10"
   gridtolerance="10"
   guidetolerance="10"
   inkscape:pageopacity="0"
   inkscape:pageshadow="2"
   inkscape:window-width="1366"
   inkscape:window-height="706"
   id="namedview14"
   showgrid="true"
   inkscape:zoom="44.194174"
   inkscape:cx="18.858413"
   inkscape:cy="13.125485"
   inkscape:window-x="0"
   inkscape:window-y="0"
   inkscape:window-maximized="1"
   inkscape:current-layer="svg12">
  <inkscape:grid
     type="xygrid"
     id="grid851" />
</sodipodi:namedview>


     /&gt;
 <path
   style="fill:url(#linearGradient897);fill-opacity:1"
   d="M 8.7773438,0.9765625 C 8.783224,0.98435938 8.7890834,0.99217191 8.7949219,1 H 4 v 0.017578 C 3.466003,1.1445981 3.1733862,1.5123693 3,2 v 9.982422 c -0.06906,0.0014 -0.1282364,0.0096 -0.1933594,0.01367 -0.3736689,-0.03397 -0.716301,0.0484 -1.0019531,0.210937 -0.6268889,0.267366 -0.86471507,0.984321 -0.8125,1.449219 -0.002239,0.03193 -0.0121649,0.0639 -0.0117188,0.0957 0.006895,0.491527 0.34398545,0.9582 1.14843745,1.152344 0.1609346,0.05069 0.3303102,0.08701 0.515625,0.09375 0.051496,0.0019 0.1071945,-0.006 0.1601563,-0.0078 C 2.8708698,14.993167 2.9296867,14.999828 3,15 h 4.2636719 c -0.00588,-0.0078 -0.01174,-0.01561 -0.017578,-0.02344 l 3.3632812,0.01758 0.002,0.0059 c 0.08568,-0.02039 0.176844,-0.07996 0.267578,-0.15625 0.04414,0.02062 0.08264,0.05003 0.128906,0.06641 0.596378,-0.212706 0.994966,-0.776982 0.996094,-1.410156 -3.62e-4,-0.129259 -0.01743,-0.257929 -0.05078,-0.382812 0.01356,-0.03435 0.04061,-0.08858 0.05078,-0.117188 l 0.04102,-9.2558594 c 0.07185,-0.00142 0.133578,-0.00936 0.201172,-0.013672 0.372474,0.032418 0.713474,-0.048175 0.998046,-0.2109376 0.625266,-0.2675418 1.856873,-0.734843 1.804688,-1.1992187 0.0022,-0.031933 0.01216,-0.063895 0.01172,-0.095703 -0.0065,-0.4611622 -1.301378,-0.8963342 -2.001953,-1.109375 -0.04379,-0.013315 -0.08581,-0.027577 -0.132813,-0.039063 -0.163354,-0.052324 -0.336726,-0.0907971 -0.525391,-0.0976563 -0.05341,-0.001942 -0.111027,0.007702 -0.166015,0.009766 -0.06434,-0.002776 -0.121219,-0.0115515 -0.189453,-0.0117188 z M 11.007812,14.910156 c -0.03347,0.01161 -0.06735,0.02204 -0.101562,0.03125 0.03421,-0.0092 0.06809,-0.01964 0.101562,-0.03125 z m -0.101562,0.03125 c -0.02649,0.0079 -0.05319,0.01506 -0.08008,0.02149 0.02689,-0.0064 0.05359,-0.01359 0.08008,-0.02149 z m -0.136719,0.0332 c -0.03817,0.0074 -0.07661,0.01322 -0.115234,0.01758 0.03862,-0.0044 0.07707,-0.01023 0.115234,-0.01758 z"
   id="path8"
   inkscape:connector-curvature="0"
   sodipodi:nodetypes="cccccccccsccccccccccccccccccccccccccccccccc" />
<path
   d="M 4.25,0 C 2.9429016,0 2,1.1080036 2,2.375 V 4.25 9.3925781 11.197266 C 0.92853829,11.437969 0,12.472476 0,13.625 0,14.971001 1.1942339,16 2.5,16 h 5.84375 2.410156 c 1.307098,0 2.249668,-1.108004 2.25,-2.375 V 11.75 6.6074219 4.5527344 C 14.075368,4.3120313 16,3.5275237 16,2.375 16,1.0289985 14.737672,0 13.431906,0 H 7.65625 Z m 0,1 H 8.7363281 12.503906 C 13.269266,1 15,1.6498765 15,2.375 15,3.1001235 13.269069,3.7326694 12.503906,3.75 h -0.5 V 6.2148438 11.75 l -0.01131,1.807118 c -0.0045,0.723658 -1.010183,1.417191 -1.453646,1.420255 L 7.2636719,15 H 2.5 C 1.7346411,15 1,14.350123 1,13.625 1,13.53436 1.0116205,13.444588 1.0332031,13.357422 1.1842818,12.747255 1.8303106,12 2.5,12 H 3 V 9.7851562 4.25 2.375 C 3,1.5644776 3.4795984,1 4.25,1 Z"
   id="path10"
   style="fill:#98989d;fill-opacity:1"
   inkscape:connector-curvature="0"
   sodipodi:nodetypes="sscccsscsscccsscsscssscccsscsscscccss" />
<circle
   style="opacity:1;fill:#98989d;fill-opacity:1;stroke:none;stroke-width:1;stroke-linecap:round;stroke-linejoin:round;stroke-miterlimit:4;stroke-dasharray:none;stroke-opacity:1"
   id="path853"
   cx="2.5"
   cy="13.5"
   r="1.5" />
<path
   style="opacity:1;fill:#c93400;fill-opacity:1;stroke:none;stroke-width:1;stroke-linecap:round;stroke-linejoin:round;stroke-miterlimit:4;stroke-dasharray:none;stroke-opacity:1"
   d="m 0,11 v 3 H 8.087891 C 8.2995246,14.598592 8.8650981,14.999109 9.5,15 9.671876,14.999143 9.842325,14.96875 10.003906,14.91016 9.476632,14.723498 9.078292,14.253813 9.011719,13.669926 H 9 V 13.5 12 11 Z"
   id="rect869"
   inkscape:connector-curvature="0"
   sodipodi:nodetypes="ccccccccccc" />
<path
   style="opacity:1;fill:#c93400;fill-opacity:1;stroke:none;stroke-width:1;stroke-linecap:round;stroke-linejoin:round;stroke-miterlimit:4;stroke-dasharray:none;stroke-opacity:1"
   d="m 2,11 v 0.197266 C 0.92853829,11.437969 0,12.472476 0,13.625 0,14.971001 1.1942339,16 2.5,16 h 8.25 c 0.08644,0 0.166915,-0.01793 0.25,-0.02734 v -1.15039 c -0.17551,0.09242 -0.342241,0.153648 -0.464844,0.154296 l -0.287109,0.002 c 0.05558,0.0097 0.111657,0.01618 0.167969,0.01953 L 9,14.990234 H 8.0429688 L 6.2636719,15 H 2.5 C 2.4026034,14.999866 2.3073567,14.988693 2.2148438,14.970703 1.9365234,14.916582 1.6877095,14.784126 1.4863281,14.597656 1.2076251,14.353425 1.020856,14.024235 1.0058594,13.669922 H 1 V 13.625 13.5 12 H 2.5 3 v -1 z m 8.605469,3.994141 0.002,0.0059 h -0.0957 c 0.0313,-9.74e-4 0.06257,-0.0029 0.09375,-0.0059 z"
   id="rect883"
   inkscape:connector-curvature="0"
   sodipodi:nodetypes="ccssscccccccccccccccccccccccc" />
<path
   style="opacity:1;fill:#ff9500;fill-opacity:1;stroke:none;stroke-width:1;stroke-linecap:round;stroke-linejoin:round;stroke-miterlimit:4;stroke-dasharray:none;stroke-opacity:1"
   d="m 1,12 v 1.5 0.169922 H 1.011719 C 1.0980261,14.426912 1.7381069,14.998952 2.5,15 c 0.1023627,7e-6 0.2044573,-0.01046 0.3046875,-0.03125 v 0.02148 H 8 l 1.416016,0.0078 C 8.6870585,14.956132 8.0941793,14.395412 8.011719,13.669922 H 8 V 13.5 12 Z m 8.605469,2.994141 c -0.03118,0.0029 -0.06245,0.0049 -0.09375,0.0059 h 0.0957 z"
   id="path861"
   inkscape:connector-curvature="0"
   sodipodi:nodetypes="cccccccccccccccccc" />
<path
   style="opacity:1;fill:#c93400;fill-opacity:1;stroke:none;stroke-width:1;stroke-linecap:round;stroke-linejoin:round;stroke-miterlimit:4;stroke-dasharray:none;stroke-opacity:1"
   d="M 14 0.052734375 L 14 1.1035156 C 14.189533 1.1726419 14.367347 1.2668533 14.513672 1.4023438 C 14.702846 1.5681194 14.844333 1.7746512 14.923828 2 L 14 2 L 14 4 L 14 4.8027344 L 14 5 L 16 5 L 16 2.375 L 16 2 L 15.964844 2 C 15.795923 1.0093317 14.975152 0.25047227 14 0.052734375 z "
   id="path899" />
<path
   style="opacity:1;fill:#ff0000;fill-opacity:1;stroke:none;stroke-width:1;stroke-linecap:round;stroke-linejoin:round;stroke-miterlimit:4;stroke-dasharray:none;stroke-opacity:1"
   d="M 13.416016,1 C 13.587892,1.000857 13.838419,1.0449256 14,1.1035156 13.472726,1.2901776 13.078292,1.7461913 13.011719,2.3300783 h -0.01172 V 2.5 4 5 H 12 V 2 h 0.0039 c 0.211633,-0.598592 0.777207,-0.999109 1.41211,-1 z"
   id="path916"
   inkscape:connector-curvature="0"
   sodipodi:nodetypes="cccccccccccc" />
<path
   style="opacity:1;fill:#c93400;fill-opacity:1;stroke:none;stroke-width:1;stroke-linecap:round;stroke-linejoin:round;stroke-miterlimit:4;stroke-dasharray:none;stroke-opacity:1"
   d="M 14 0.052734375 C 13.024848 0.25047227 12.204073 1.0093317 12.035156 2 L 12 2 L 12 2.375 L 12 5 L 14 5 L 14 4.8027344 L 14 4 L 13 4 L 13 2.5 L 13 2.3300781 L 13.011719 2.3300781 C 13.025001 2.2132205 13.061016 2.1058596 13.099609 2 L 13.076172 2 C 13.130455 1.84612 13.222537 1.7074711 13.330078 1.578125 C 13.340639 1.5651392 13.352292 1.5536311 13.363281 1.5410156 C 13.40439 1.49482 13.439035 1.4437876 13.486328 1.4023438 C 13.5298 1.3620904 13.580394 1.3322191 13.628906 1.2988281 C 13.639579 1.2912733 13.649281 1.282679 13.660156 1.2753906 C 13.766275 1.2068063 13.879258 1.1475525 14 1.1035156 L 14 0.052734375 z "
   id="path928" />
<path
   style="opacity:1;fill:#ff9500;fill-opacity:1;stroke:none;stroke-width:1;stroke-linecap:round;stroke-linejoin:round;stroke-miterlimit:4;stroke-dasharray:none;stroke-opacity:1"
   d="M 14.021484,1.095703 C 13.485103,1.2796077 13.078409,1.7433337 13.011719,2.330078 H 13 V 2.5 4 h 2 V 2.5 2.3300781 H 14.98828 C 14.922743,1.7552437 14.536532,1.288197 14.021484,1.095703 Z"
   id="path903"
   inkscape:connector-curvature="0"
   sodipodi:nodetypes="cccccccccc" />
</svg>
